X:34
T:Rose Waltz
S:Sarah Comer
M:3/4
L:1/4
Z:abc-transcription Josh Larios <hades@elsewhere.org>, 2014.01.22
Z:abc-edited-by Sarah Comer <fiddleteacher@hotmail.com>, 2014.01.22
K:D
|: A, | "D"D2E | "(Bm)" F2G | "(F#m)"A2F | "(D)"dcA | "G"B>cd | "D"A<GF |"Bm"E<FD | "A"C>B,A, |
"D"D2E | F2G | A2F | dcA | "G"B>cd | "A"e<dc | "D"d3 | d2 :|
|: e | "D"f<ag | f>ed | "G"e<fe | "D" d>cB | "Bm"dcB | "D" AGF | "Bm"E<FD | "A"C>B,A, |
"D"f<ag | f>ed | "G"e<fe | "D" d>cB | "G" d2c | "Em"B<ed | "A"cBc | "D"d2 :|

